Papirus/16x16/status/changes-prevent.svg

<svg xmlns="http://www.w3.org/2000/svg" width="16" height="16" version="1">
 <path fill="#d2d2d2" d="m8 1c-2.216 0-4 1.784-4 4v2h2v-2c0-1.108 0.892-2 2-2s2 0.892 2 2v2h2v-2c0-2.216-1.784-4-4-4z"/>
 <rect fill="#fecd38" width="9" height="12" x="-16" y="-14" rx="1" ry="1" transform="matrix(0,-1,-1,0,0,0)"/>
 <rect fill="#fed96a" width="12" height="5" x="2" y="9" rx="0" ry="0"/>
</svg>

<svg xmlns="http://www.w3.org/2000/svg" width="16" height="16" version="1">
 <path style="fill:#d2d2d2" d="M 8,1 C 5.784,1 4,2.784 4,5 V 7 H 6 V 5 C 6,3.892 6.892,3 8,3 9.108,3 10,3.892 10,5 V 7 H 12 V 5 C 12,2.784 10.216,1 8,1 Z"/>
 <rect style="fill:#ffb437" width="12" height="9" x="2" y="7" rx="1" ry="1"/>
 <rect style="fill:#fed96a" width="12" height="5" x="2" y="9" rx="0" ry="0"/>
</svg>
